dist/icons/svgs/floppy-disk-solid.svg

<svg xmlns="http://www.w3.org/2000/svg" width="24" height="24" fill="currentcolor" class="icon-floppy-disk-solid" viewBox="0 0 24 24">
  <path d="M5.75 3.25H15.2031C15.8672 3.25 16.5312 3.52344 17 3.99219L20.0078 7C20.4766 7.46875 20.75 8.13281 20.75 8.79688V18.25C20.75 19.6562 19.6172 20.75 18.25 20.75H5.75C4.34375 20.75 3.25 19.6562 3.25 18.25V5.75C3.25 4.38281 4.34375 3.25 5.75 3.25ZM5.75 7V9.5C5.75 10.2031 6.29688 10.75 7 10.75H14.5C15.1641 10.75 15.75 10.2031 15.75 9.5V7C15.75 6.33594 15.1641 5.75 14.5 5.75H7C6.29688 5.75 5.75 6.33594 5.75 7ZM12 13.25C11.1016 13.25 10.2812 13.7578 9.8125 14.5C9.38281 15.2812 9.38281 16.2578 9.8125 17C10.2812 17.7812 11.1016 18.25 12 18.25C12.8594 18.25 13.6797 17.7812 14.1484 17C14.5781 16.2578 14.5781 15.2812 14.1484 14.5C13.6797 13.7578 12.8594 13.25 12 13.25Z"/>
</svg>

<svg xmlns="http://www.w3.org/2000/svg" width="24" height="24" fill="currentColor" class="icon-floppy-disk-solid" viewBox="0 0 24 24">
  <path d="M5.75 3.25h9.453c.664 0 1.328.273 1.797.742L20.008 7c.469.469.742 1.133.742 1.797v9.453c0 1.406-1.133 2.5-2.5 2.5H5.75a2.47 2.47 0 0 1-2.5-2.5V5.75c0-1.367 1.094-2.5 2.5-2.5m0 3.75v2.5c0 .703.547 1.25 1.25 1.25h7.5c.664 0 1.25-.547 1.25-1.25V7c0-.664-.586-1.25-1.25-1.25H7c-.703 0-1.25.586-1.25 1.25M12 13.25c-.898 0-1.719.508-2.187 1.25-.43.781-.43 1.758 0 2.5A2.54 2.54 0 0 0 12 18.25c.86 0 1.68-.469 2.148-1.25.43-.742.43-1.719 0-2.5-.468-.742-1.289-1.25-2.148-1.25"/>
</svg>
